X:1
T:Old Favorite, The
R:jig
M:6/8
S:
K:G
B3 BAB | dBA G2B | ded d2B | ded B2a |
B3 BAB | dBA G2B | ded cBA | G3 G3 :|
|: g3 fgf | efe d2B | ded d2B | ded B2d |
g3 fgf | efe d2B |1 dge dBA | G3 Gde :|2 dge dge | dge dBA ||


